X:1
T:Temple, 87. 87 D
T:James M. North, 1882
T:Temple, 87. 87 D
T:Public Domain
C:James M. North, 1882
Z:Public Domain
%%score ( 1 2 ) ( 3 4 )
L:1/8
M:4/4
K:Bb
V:1 treble 
V:2 treble 
V:3 bass 
V:4 bass 
V:1
 [FB]3 [FB] [FB]2 F2 | [Fd]3 [Fd] [Fd]2 [FB]2 | [Fe]3 [Fd] [Fc]2 [FB]2 | [FA]2 [FB]2 [Ac]4 | %4
 [Fd]3 [Ec] [DB]2 [DF]2 | [EG]3 [FA] [GB]2 [EG]2 | [DF]2 [FB]2 [Fd]3 [Ec] | [DB]2 [CA]2 [DB]4 | %8
 [Fc]3 [Fd] [Fc]2 [FA]2 | [Fe]3 [Fd] [Fc]2 [FA]2 | [Fc]3 [Fd] [Fc]2 [GB]2 | [FA]2 [=EG]2 F4 | %12
 [DB]3 [DB] [DA]2 F2 | [Fd]3 [Fd] [Fd]2 [FB]2 | F2 [FB]2 [Fd]3 [Ec] | [DB]2 [CA]2 [DB]4 |] %16
V:2
 x6 F2 | x8 | x8 | x8 | x8 | x8 | x8 | x8 | x8 | x8 | x8 | x4 F4 | x6 F2 | x8 | F2 x6 | x8 |] %16
V:3
 [B,,D]3 [B,,D] [B,,D]2 [B,,D]2 | B,3 B, B,2 [B,D]2 | [F,C]3 [F,B,] [F,A,]2 [F,D]2 | %3
 [F,E]2 [F,D]2 [F,A,]4 | B,3 B, B,2 B,2 | [E,B,]3 [E,B,] [E,B,]2 [E,B,]2 | %6
 [B,,B,]2 [B,,D]2 [B,,B,]3 [E,G,] | F,2 F,2 [B,,F,]4 | [F,A,]3 [F,B,] [F,A,]2 [F,C]2 | %9
 [F,C]3 [F,B,] [F,A,]2 [F,C]2 | [F,A,]3 [F,B,] [F,A,]2 [B,,D]2 | [C,C]2 [C,B,]2 [F,A,]4 | %12
 [B,,B,]3 [B,,B,] [B,,B,]2 [B,,D]2 | B,3 B, B,2 [B,D]2 | [B,D]2 [B,D]2 B,3 [E,G,] | %15
 F,2 F,2 [B,,F,]4 |] %16
V:4
 x8 | B,3 B, B,2 x2 | x8 | x8 | B,3 B, B,2 B,2 | x8 | x8 | F,2 F,2 x4 | x8 | x8 | x8 | x8 | x8 | %13
 B,3 B, B,2 x2 | x4 B,3 x | F,2 F,2 x4 |] %16

